NotoEmoji/emoji_u1f47d.svg

<svg enable-background="new 0 0 128 128" viewBox="0 0 128 128" xmlns="http://www.w3.org/2000/svg"><path d="m64 4.5c-27.8 0-56 23.6-56 51.3s44.3 67.7 56.2 67.7c13.2 0 55.8-39.9 55.8-67.7s-28.2-51.3-56-51.3z" fill="#adbcc3"/><g fill="#422b0d"><path d="m64 102.35c-9.37 0-16.06-5.52-18.07-8.58-.76-.98-.92-2.31-.41-3.44.39-.74 1.17-1.18 2-1.15.3 0 .6.05.88.15 4.7 1.47 8.83 3.67 15.6 3.67s10.92-2.16 15.63-3.63c.28-.1.58-.15.88-.15.83-.03 1.61.41 2 1.15.51 1.13.35 2.46-.41 3.44-2.04 3.02-8.73 8.54-18.1 8.54z"/><path d="m54.05 81.56c-3 3.88-17.71 3.89-28.85-6.36-10.09-9.28-9.46-25.64-6.13-28.94s19.19-3.38 28.85 6.36 9.8 25.3 6.13 28.94z"/><path d="m80.08 52.58c9.66-9.7 25.52-9.62 28.85-6.33s3.53 19.11-6.13 28.8-25.16 9.95-28.86 6.33-3.52-19.1 6.14-28.8z"/></g><path d="m64 4.5c14.52 0 29.13 6.42 39.8 16.5-10.8-11.54-26.63-19-42.33-19-27.8 0-56 23.6-56 51.3 0 15.6 14.06 35.11 28.47 49.18-13.48-13.84-25.94-31.99-25.94-46.68 0-27.7 28.2-51.3 56-51.3z" fill="#adbcc3"/></svg>

<?xml version="1.0" encoding="utf-8"?>
<!-- Generator: Adobe Illustrator 24.1.2, SVG Export Plug-In . SVG Version: 6.00 Build 0)  -->
<svg version="1.1" id="Layer_1" xmlns="http://www.w3.org/2000/svg" xmlns:xlink="http://www.w3.org/1999/xlink" x="0px" y="0px"
	 viewBox="0 0 128 128" style="enable-background:new 0 0 128 128;" xml:space="preserve">
<g id="facial_expressions">
	<g id="alien">
		<path style="fill:#ADBCC3;" d="M64,4.5C36.2,4.5,8,28.1,8,55.8s44.3,67.7,56.2,67.7c13.2,0,55.8-39.9,55.8-67.7S91.8,4.5,64,4.5z"
			/>
	</g>
	<g id="alien-face">
		<path id="mouth" style="fill:#422B0D;" d="M64,102.35c-9.37,0-16.06-5.52-18.07-8.58c-0.76-0.98-0.92-2.31-0.41-3.44
			c0.39-0.74,1.17-1.18,2-1.15c0.3,0,0.6,0.05,0.88,0.15C53.1,90.8,57.23,93,64,93s10.92-2.16,15.63-3.63
			c0.28-0.1,0.58-0.15,0.88-0.15c0.83-0.03,1.61,0.41,2,1.15c0.51,1.13,0.35,2.46-0.41,3.44C80.06,96.83,73.37,102.35,64,102.35z"/>
		<g id="eyes">
			<path style="fill:#422B0D;" d="M54.05,81.56c-3,3.88-17.71,3.89-28.85-6.36c-10.09-9.28-9.46-25.64-6.13-28.94
				s19.19-3.38,28.85,6.36S57.72,77.92,54.05,81.56z"/>
			<path style="fill:#422B0D;" d="M80.08,52.58c9.66-9.7,25.52-9.62,28.85-6.33s3.53,19.11-6.13,28.8S77.64,85,73.94,81.38
				S70.42,62.28,80.08,52.58z"/>
		</g>
	</g>
	<path style="fill:#ADBCC3;" d="M64,4.5c14.52,0,29.13,6.42,39.8,16.5C93,9.46,77.17,2,61.47,2c-27.8,0-56,23.6-56,51.3
		c0,15.6,14.06,35.11,28.47,49.18C20.46,88.64,8,70.49,8,55.8C8,28.1,36.2,4.5,64,4.5z"/>
</g>
</svg>
